X:1
T:Smash the Windows -- Jig
R:jig
B:Ryan's Mammoth Collection
N: 88 459
Z: Contributed by Ray Davies,  ray:davies99.freeserve.co.uk
M:6/8
L:1/8
K:D
uA|\
DED F2A | d2f ecA | G2B F2A | E2F GFE |
DED F2A | d2f ecA | Bgf edc | (d3 d2)H:|
|:f|\
a2f d2e | f2g agf | g2e cde | e2f gfe |
a2f d2e | f2g agf | g2e cde | (d3 d2)|]
f|\
a2f d2e | f2g agf | g2e cde | e2f gfe |
fed gfe | agf bag | fed cde | (d3 d2)"_D.C."|]
